public/illustrations/_justice.svg

<svg width="222" height="222" viewBox="0 0 222 222" fill="none" xmlns="http://www.w3.org/2000/svg">
<path d="M185.067 45.8454C187.318 50.8717 189.215 55.1903 191.113 59.5086C196.451 71.1753 201.76 82.9695 207.098 94.6362C207.508 95.6556 208.245 96.6326 209.009 97.4821C209.958 98.2325 210.652 99.3367 211.02 100.498C211.388 101.659 211.275 102.961 210.892 104.165C208.684 109.701 206.418 115.364 203.671 120.73C201.661 124.695 197.739 126.266 193.449 126.677C188.394 127.144 183.212 127.569 178.101 127.725C170.894 127.951 163.73 128.036 156.608 127.994C153.791 127.994 151.044 127.258 148.693 125.771C146.343 124.284 144.488 122.203 143.242 119.569C141.218 115.662 138.796 112.065 136.602 108.242C133.997 103.839 134.761 100.965 138.159 97.2978C140.099 94.9475 141.543 92.2856 142.761 89.3972C148.906 76.6403 155.022 64.0251 161.167 51.2824C161.96 49.7533 162.654 48.0399 163.645 45.8312C146.669 45.4631 130.018 45.4917 112.957 45.4067C112.646 91.0824 112.376 136.63 112.15 182.476C113.764 182.547 115.236 182.575 116.723 182.603C124.425 182.688 132.213 182.49 139.717 184.6C152.431 188.068 164.098 193.421 172.565 204.153C174.335 206.503 176.289 208.769 178.115 210.977C178.667 211.6 179.163 212.351 179.489 213.2C179.814 214.05 179.828 214.942 179.701 215.791C179.446 216.598 179.191 217.405 178.653 218.127C178.115 218.85 177.365 219.359 176.657 219.713C174.519 220.817 172.112 221.384 169.733 221.37L100.058 221.271H53.0942C52.0606 221.256 50.9846 221.356 49.9651 221.327C45.7459 221.016 43.6078 217.519 45.2927 213.597C48.082 207.197 51.8482 201.42 56.4923 196.21C61.7876 190.32 68.6404 187.007 76.3144 184.855C83.9459 182.83 91.8747 182.688 99.662 182.504L102.791 182.462L103.499 45.2083L53.5613 44.7271C54.3825 46.3271 54.8923 47.5303 55.5436 48.7763C63.9821 64.7047 72.4207 80.6189 81.0433 96.4482C82.1335 98.1331 82.6999 100.101 82.8132 102.069C82.9264 104.038 82.6007 106.005 81.8503 107.86C79.6699 112.816 77.3621 117.729 74.6861 122.373C72.2791 126.663 68.1306 128.461 63.345 128.56C57.7523 128.857 52.2446 128.886 46.7369 128.9C41.2292 128.914 35.9479 128.73 30.5252 128.475C28.3306 128.362 26.1786 128.121 24.1114 127.611C21.8744 127.187 19.793 126.238 18.0373 124.78C16.2816 123.321 14.9082 121.551 13.9454 119.456C12.0623 115.591 9.95278 111.938 8.0272 108.2C5.54944 103.4 5.35122 98.8694 8.38117 94.0413C18.4338 78.3819 28.1325 62.4394 37.9161 46.695C38.0435 46.2844 38.355 45.789 38.7514 45.0244C37.9444 44.7696 37.0948 44.6421 36.1886 44.6563C31.1765 44.543 26.1644 44.8685 21.2372 44.4862C17.471 44.1747 13.6198 43.6933 9.92442 42.6597C3.86451 41.173 -0.680522 32.1402 0.0840456 25.9953C0.154839 24.8343 0.777889 23.8429 1.57077 23.2058C2.40613 22.4271 3.43965 22.0166 4.51571 21.9175C5.59177 21.8184 6.52624 22.1156 7.34744 22.8235C8.21112 23.3898 8.80592 24.3243 9.07493 25.3154C9.44306 26.4764 9.47139 27.8217 9.79704 29.1102C10.7881 32.9896 12.2889 34.363 16.1401 34.4055C24.2105 34.7453 32.3658 35.269 40.323 34.9858C44.5281 34.8443 48.4501 33.7116 52.5561 35.3256L101.46 35.7788C102.083 35.6797 102.706 35.5806 103.202 35.439C103.287 28.1898 103.329 21.0681 103.372 13.9464C103.428 11.4403 103.4 8.74989 103.456 6.24382C103.485 5.21024 103.513 4.17684 103.825 3.24237C104.136 2.30791 104.702 1.44405 105.453 0.934343C106.203 0.424634 107.237 0.0141586 108.129 0C109.162 0.0283172 110.097 0.339958 110.833 0.863827C111.697 1.43017 112.15 2.322 112.475 3.17151C112.759 4.60153 112.915 5.98895 112.801 7.29154C112.773 15.7584 112.745 24.2113 112.716 32.6782C112.773 33.4427 112.83 34.1928 112.787 35.2264C113.594 35.4813 114.486 35.4671 115.35 35.5946C132.099 35.7361 148.708 35.8354 165.415 36.1186C166.264 36.246 167.199 36.0903 168.048 35.7646C168.898 35.439 169.606 35.0709 170.399 34.4338C170.838 33.9807 171.418 33.5701 171.956 33.3011C172.494 33.032 173.117 32.9329 173.882 32.8762C174.505 32.7771 175.184 32.9895 175.85 33.216C176.515 33.4426 176.982 33.8674 177.435 34.3204C179.205 35.7788 181.542 36.3734 183.906 36.3875C189.725 36.3167 195.502 36.3877 201.194 36.2603C202.85 36.1895 204.45 35.8212 206.107 35.2973C207.225 35.0566 208.33 34.3771 209.179 33.5983C210.015 32.8196 210.637 31.8287 210.892 30.5827L212.535 25.4571C213.398 22.7528 215.579 21.5211 217.816 21.9458C218.892 22.2856 219.926 22.7671 220.662 23.744C221.384 24.7209 221.766 25.8821 221.695 27.0431C221.61 30.5827 220.619 34.1362 218.51 37.0246C216.527 39.9554 213.837 42.3625 210.666 43.8917C206.886 45.5057 202.765 46.2704 198.645 46.143C194.383 45.9731 190.051 46.0721 184.855 46.0438L185.081 45.8174L185.067 45.8454ZM165.599 211.6L165.896 210.652C163.532 208.259 161.181 205.88 158.505 203.53C155.15 200.528 150.931 198.886 146.782 196.96C141.246 194.299 135.172 192.812 129.041 192.486C116.058 192.203 103.202 191.962 90.1756 192.26C84.7104 192.599 79.4859 193.605 74.3605 195.233C66.29 197.711 61.0372 203.459 57.186 211.303L165.5 211.402L165.585 211.586L165.599 211.6ZM146.527 106.076C148.58 109.403 150.237 112.164 151.879 114.925C152.431 115.987 153.196 116.837 154.201 117.446C155.192 118.054 156.311 118.267 157.528 118.21C163.801 118.125 170.016 118.182 176.289 118.111C180.947 117.955 185.506 117.63 190.065 117.304C192.033 117.191 194.412 117.205 195.629 115.223C197.739 112.334 199.084 109.05 199.891 105.581L146.527 106.076ZM71.3163 107.931L17.556 105.935C19.255 109.007 20.5859 111.358 21.5911 113.764C22.1433 115.279 23.3326 116.695 24.6776 117.573C26.1643 118.493 27.7926 119.017 29.4916 118.805C35.6789 118.989 41.8521 119.187 47.8979 119.329C52.3295 119.414 56.8461 119.215 61.3344 119.159C63.4441 119.088 65.4971 118.706 66.7148 116.723C68.2439 114.246 69.5606 111.541 71.3022 107.931H71.3163ZM170.03 57.1017L169.223 56.8466C162.852 69.8301 156.438 82.941 150.166 96.5332L171.036 96.3635C170.682 83.0261 170.342 70.1274 170.002 57.2431L170.045 57.1017H170.03ZM39.431 97.0006C40.4646 90.4876 41.0167 63.6146 40.2663 60.8536C32.9746 72.492 25.9236 83.9181 18.3204 96.0662L39.4594 96.873L39.4168 97.0147L39.431 97.0006ZM51.4375 61.7458L50.6306 61.9297L49.3846 97.4963L70.8492 98.2464L51.4375 61.7316V61.7458ZM180.593 59.4378L179.743 59.7634C180.026 71.8973 180.366 83.8898 180.706 96.3352L197.272 96.1226L180.593 59.4378Z" fill="#102185"/>
</svg>

<svg xmlns="http://www.w3.org/2000/svg" width="222" height="222" fill="none" viewBox="0 0 222 222"><path fill="#102185" d="M185.067 45.845c2.251 5.027 4.148 9.345 6.046 13.664 5.338 11.666 10.647 23.46 15.985 35.127.41 1.02 1.147 1.997 1.911 2.846.949.75 1.643 1.855 2.011 3.016s.255 2.463-.128 3.667c-2.208 5.536-4.474 11.199-7.221 16.565-2.01 3.965-5.932 5.536-10.222 5.947-5.055.467-10.237.892-15.348 1.048-7.207.226-14.371.311-21.493.269-2.817 0-5.564-.736-7.915-2.223s-4.205-3.568-5.451-6.202c-2.024-3.907-4.446-7.504-6.64-11.327-2.605-4.403-1.841-7.277 1.557-10.944 1.94-2.35 3.384-5.012 4.602-7.9 6.145-12.758 12.261-25.373 18.406-38.116.793-1.529 1.487-3.242 2.478-5.45-16.976-.369-33.627-.34-50.688-.425-.311 45.675-.581 91.223-.807 137.069 1.614.071 3.086.099 4.573.127 7.702.085 15.49-.113 22.994 1.997 12.714 3.468 24.381 8.821 32.848 19.553 1.77 2.35 3.724 4.616 5.55 6.824a7.4 7.4 0 0 1 1.374 2.223c.325.85.339 1.742.212 2.591-.255.807-.51 1.614-1.048 2.336-.538.723-1.288 1.232-1.996 1.586a15 15 0 0 1-6.924 1.657l-69.675-.099H53.094c-1.033-.015-2.11.085-3.129.056-4.22-.311-6.357-3.808-4.672-7.73 2.789-6.4 6.555-12.177 11.2-17.387 5.295-5.89 12.147-9.203 19.821-11.355 7.632-2.025 15.56-2.167 23.348-2.351l3.129-.042.708-137.254-49.938-.48c.822 1.6 1.331 2.802 1.983 4.048 8.438 15.929 16.877 31.843 25.5 47.672 1.09 1.685 1.656 3.653 1.77 5.621a13.36 13.36 0 0 1-.964 5.791c-2.18 4.956-4.488 9.869-7.164 14.513-2.407 4.29-6.555 6.088-11.341 6.187-5.593.297-11.1.326-16.608.34s-10.79-.17-16.212-.425c-2.194-.113-4.346-.354-6.414-.864-2.237-.424-4.318-1.373-6.074-2.831a15 15 0 0 1-4.092-5.324c-1.883-3.865-3.992-7.518-5.918-11.256-2.478-4.8-2.676-9.33.354-14.159 10.053-15.66 19.752-31.602 29.535-47.346.128-.41.439-.906.835-1.67a8 8 0 0 0-2.562-.369c-5.012-.113-10.025.212-14.952-.17-3.766-.311-7.617-.793-11.313-1.826C3.864 41.173-.68 32.14.084 25.995c.07-1.16.694-2.152 1.487-2.79.835-.778 1.869-1.188 2.945-1.287 1.076-.1 2.01.198 2.831.906.864.566 1.459 1.5 1.728 2.491.368 1.161.396 2.507.722 3.795.991 3.88 2.492 5.253 6.343 5.296 8.07.34 16.226.863 24.183.58 4.205-.142 8.127-1.274 12.233.34l48.904.453c.623-.1 1.246-.198 1.742-.34.085-7.25.127-14.37.17-21.493.056-2.506.028-5.196.084-7.702.029-1.034.057-2.067.369-3.002.311-.934.877-1.798 1.628-2.308s1.784-.92 2.676-.934c1.033.028 1.968.34 2.704.864.864.566 1.317 1.458 1.642 2.308.284 1.43.44 2.817.326 4.12l-.085 25.386c.057.765.114 1.515.071 2.548.807.255 1.699.241 2.563.369 16.749.141 33.358.24 50.065.524.849.127 1.784-.029 2.633-.354.85-.326 1.558-.694 2.351-1.331a6 6 0 0 1 1.557-1.133c.538-.269 1.161-.368 1.926-.425.623-.099 1.302.114 1.968.34s1.132.651 1.585 1.104c1.77 1.459 4.107 2.053 6.471 2.068 5.819-.071 11.596 0 17.288-.128 1.656-.07 3.256-.439 4.913-.963 1.118-.24 2.223-.92 3.072-1.699.836-.778 1.458-1.77 1.713-3.015l1.643-5.126c.863-2.704 3.044-3.936 5.281-3.511 1.076.34 2.11.821 2.846 1.798.722.977 1.104 2.138 1.033 3.3-.085 3.539-1.076 7.092-3.185 9.98-1.983 2.931-4.673 5.338-7.844 6.868a28.4 28.4 0 0 1-12.021 2.251c-4.262-.17-8.594-.07-13.79-.1l.226-.226zM165.599 211.6l.297-.948c-2.364-2.393-4.715-4.772-7.391-7.122-3.355-3.002-7.574-4.644-11.723-6.57-5.536-2.661-11.61-4.148-17.741-4.474-12.983-.283-25.839-.524-38.865-.226a65.2 65.2 0 0 0-15.815 2.973c-8.071 2.478-13.324 8.226-17.175 16.07l108.314.099.085.184zm-19.072-105.524a605 605 0 0 1 5.352 8.849c.552 1.062 1.317 1.912 2.322 2.521.991.608 2.11.821 3.327.764 6.273-.085 12.488-.028 18.761-.099 4.658-.156 9.217-.481 13.776-.807 1.968-.113 4.347-.099 5.564-2.081 2.11-2.889 3.455-6.173 4.262-9.642zm-75.21 1.855-53.761-1.996c1.699 3.072 3.03 5.423 4.035 7.829.552 1.515 1.742 2.931 3.087 3.809 1.486.92 3.115 1.444 4.814 1.232 6.187.184 12.36.382 18.406.524 4.432.085 8.948-.114 13.436-.17 2.11-.071 4.163-.453 5.38-2.436 1.53-2.477 2.847-5.182 4.588-8.792zm98.713-50.83-.807-.254c-6.371 12.983-12.785 26.094-19.057 39.686l20.87-.17c-.354-13.337-.694-26.236-1.034-39.12l.043-.141zm-130.599 39.9c1.034-6.513 1.586-33.386.835-36.147-7.291 11.638-14.342 23.064-21.946 35.212l21.14.807-.043.142zm12.007-35.255-.807.184-1.246 35.566 21.464.75-19.412-36.514zm129.155-2.308-.85.325c.283 12.134.623 24.127.963 36.572l16.566-.212z"/></svg>
